book-multiple-outline.svg

<svg fill="currentColor" viewBox="0 0 24 24"><path d="M19 2a2 2 0 0 1 2 2v12a2 2 0 0 1-2 2H9a2 2 0 0 1-2-2V4a2 2 0 0 1 2-2zm0 2h-3v6l-2.5-2.25L11 10V4H9v12h10M3 20a2 2 0 0 0 2 2h12v-2H5V6H3Z"/></svg>

<svg  viewBox="0 0 24 24" fill="currentColor"><path  d="M19 2A2 2 0 0 1 21 4V16A2 2 0 0 1 19 18H9A2 2 0 0 1 7 16V4A2 2 0 0 1 9 2H19M19 4H16V10L13.5 7.75L11 10V4H9V16H19M3 20A2 2 0 0 0 5 22H17V20H5V6H3Z"/></svg>
